X:1
T:Title
%%score 1 2 3
L:1/8
M:2/2
K:C
V:1 treble nm="Part_1"
V:2 treble-8 nm="Part_2"
V:3 treble-8 nm="Part_3"
V:1
 F8- | F8 | E6 F2 | G4 A4- | A2 G2 F4- | F4 E4 | F8- | F8 | E8 | D4 B,4 | C8 | D8 | C4 D4 | %13
 E4 F4- | F4 E4- | E4 D4 | E8- | E8 | z8 | G8 | A8 | G8- | G4 F4 | A8- | A8 | A4 F4 | E8- | %27
 E4 G4- | G4 G4- | G4 F4- | F4 E4- | E4 D4 | E8- | E8 | z8 | F8- | F4 E4- | E4 F4- | F4 G4- | %39
 G4 D4- | D4 E4- | E4 F4- | F4 E4 | C4 D4- | D4 E4- | E2 C2 C4- | C4 B,4 | C8- | C8 | z8 | G8 | %51
 F4 A4- | A4 G4 | F4 E4 | G8- | G8 | G8 | A8 | G4 E4 | F8 | E8 | D8 | C4 F4- | F2 E2 E4- | E4 D4 | %65
 E8 |] %66
V:2
 c8- | c8 | c6 B2 | G4 c4 | d4 c4- | c4 B4 | c4 A4- | A2 G2 F2 E2 | G8 | F4 A4- | A2 G2 G2 F2 | %11
 A8- | A8 | B4 c4- | c4 B4 | A4 B4 | c6 B2 | G8- | G8 | z8 | c8- | c8 | G8 | A8- | A8 | A8 | %26
 B4 c4 | B2 c2 d4- | d8 | d4 c4- | c4 c4 | B4 A3 G | G8- | G8 | c8 | A8 | z8 | c8 | d8- | d8 | B8 | %41
 c8- | c8 | c4 A4 | B8 | G4 G4- | G4 F4 | G8- | G8 | c8 | e8 | f8 | d4 d4- | d4 c4 | d8 | G4 G4- | %56
 G4 c4 | c8 | c4 A4 | B4 A2 B2 | c8 | A4 B4 | c8 | B4 G4 | A8 | B8 |] %66
V:3
 F8- | F8 | C8- | C8 | F8 | G8 | F8 | D8 | C8 | D8 | E8 | D4 F4- | F4 D4 | G4 A4- | A4 G4 | F6 E2 | %16
 C8- | C8 | C8 | E8 | F8 | C8 | z4 E4 | D8 | F8 | D4 F4 | G4 A4- | A4 G4 | B8- | B4 A4- | A4 A4 | %31
 G6 F2 | C8- | C8 | C8 | D8 | A8- | A8 | B8- | B8 | G8 | A8- | A8 | A4 F4 | G8 | C8 | D8 | C8- | %48
 C8 | C8 | c8 | d8 | B4 G4 | A8 | G8 | E8 | C8 | F8 | C8 | D8 | C8 | F4 G4 | A8 | G4 E4 | F8 | %65
 E8 |] %66

